assets/fc/fc-advance.svg

<svg xmlns="http://www.w3.org/2000/svg" width="100%" height="100%" viewBox="0 0 48 48"><g fill="#1565C0"><path d="M46.1 24L33 35V13zM10 20h4v8h-4zM4 20h4v8H4zM16 20h4v8h-4z"/><path d="M22 20h14v8H22z"/></g></svg>

<svg xmlns="http://www.w3.org/2000/svg" width="100%" height="100%" viewBox="0 0 48 48"><g fill="#1565C0"><path d="M46.1 24L33 35 33 13zM10 20H14V28H10zM4 20H8V28H4zM16 20H20V28H16z"/><path d="M22 20H36V28H22z"/></g></svg>
